Hatter/scalable/apps/distributor-logo-solus.svg

<?xml version="1.0" encoding="UTF-8" standalone="no"?>
<svg
   width="64"
   height="64"
   viewBox="0 0 16.933 16.933"
   version="1.1"
   id="svg3"
   sodipodi:docname="distributor-logo-solus.svg"
   inkscape:version="1.3.2 (091e20ef0f, 2023-11-25, custom)"
   xmlns:inkscape="http://www.inkscape.org/namespaces/inkscape"
   xmlns:sodipodi="http://sodipodi.sourceforge.net/DTD/sodipodi-0.dtd"
   xmlns="http://www.w3.org/2000/svg"
   xmlns:svg="http://www.w3.org/2000/svg">
  <defs
     id="defs3">
    <filter
       id="filter1057"
       x="-0.026999999"
       y="-0.026999999"
       width="1.054"
       height="1.054"
       color-interpolation-filters="sRGB">
      <feGaussianBlur
         stdDeviation="0.61875"
         id="feGaussianBlur1" />
    </filter>
    <linearGradient
       id="linearGradient1053"
       x1="-127"
       x2="-127"
       y1="60"
       y2="5"
       gradientTransform="matrix(0.26458,0,0,0.26458,34.79268,-0.13499016)"
       gradientUnits="userSpaceOnUse">
      <stop
         stop-color="#323741"
         offset="0"
         id="stop1" />
      <stop
         stop-color="#465064"
         offset="1"
         id="stop2" />
    </linearGradient>
  </defs>
  <sodipodi:namedview
     id="namedview3"
     pagecolor="#ffffff"
     bordercolor="#000000"
     borderopacity="0.25"
     inkscape:showpageshadow="2"
     inkscape:pageopacity="0.0"
     inkscape:pagecheckerboard="0"
     inkscape:deskcolor="#d1d1d1"
     inkscape:zoom="2.1765631"
     inkscape:cx="-152.07462"
     inkscape:cy="-27.566396"
     inkscape:window-width="1920"
     inkscape:window-height="995"
     inkscape:window-x="0"
     inkscape:window-y="0"
     inkscape:window-maximized="1"
     inkscape:current-layer="svg3" />
  <rect
     transform="matrix(0.26458,0,0,0.26458,-6.016e-5,-6.016e-5)"
     x="4.5"
     y="4.5"
     width="55"
     height="55"
     ry="15"
     fill="#141414"
     filter="url(#filter1057)"
     opacity="0.3"
     stroke-linecap="round"
     stroke-width="2.7444"
     id="rect2" />
  <path
     id="rect3"
     style="fill:#5294e2;fill-opacity:1"
     d="M 15.742398 11.292628 C 14.315185 12.526764 12.12927 13.917781 9.8927415 14.243811 C 7.2220247 14.632218 4.3706977 13.821913 1.6200243 13.568414 C 2.2734208 14.859513 3.6080223 15.742398 5.1592734 15.742398 L 11.773727 15.742398 C 13.972384 15.742398 15.742398 13.972384 15.742398 11.773727 L 15.742398 11.292628 z " />
  <path
     id="path10"
     style="fill:#ffffff;fill-opacity:1"
     d="M 15.742398 10.499411 C 14.440248 11.811554 12.381346 12.546863 9.9816232 12.896117 C 7.2877053 13.286889 4.1913211 13.195006 1.3735325 12.971046 C 1.438741 13.178695 1.5232636 13.377216 1.6200243 13.568414 C 4.3706977 13.821913 7.2220247 14.632218 9.8927415 14.243811 C 12.12927 13.917781 14.315185 12.526764 15.742398 11.292628 L 15.742398 10.499411 z " />
  <path
     id="path9"
     style="fill:url(#linearGradient1053)"
     d="M 5.1592734 1.1906016 C 2.9606159 1.1906016 1.1906016 2.9606159 1.1906016 5.1592734 L 1.1906016 11.773727 C 1.1906016 12.19141 1.25497 12.593496 1.3735325 12.971046 C 4.1913211 13.195006 7.2877053 13.286889 9.9816232 12.896117 C 12.381346 12.546863 14.440248 11.811554 15.742398 10.499411 L 15.742398 5.1592734 C 15.742398 2.9606159 13.972384 1.1906016 11.773727 1.1906016 L 5.1592734 1.1906016 z " />
  <path
     fill="#ffffff"
     fill-rule="evenodd"
     d="m 6.0715,3.1706553 c -0.663,2.705 -2.57,6.031 -3.771,8.1539997 2.093,0.503 4.416,0.65 6.216,0.814 -0.03,-0.408 -0.334,-4.8499997 -0.408,-5.7069997 -0.74,-1.342 -1.342,-2.036 -2.037,-3.261 z m 2.547,3.464 c 0.983,2.023 0.983,4.0249997 0.408,5.5029997 0.81,0.005 2.133,0.096 3.567,-0.612 -1.179,-2.6899997 -3.975,-4.8909997 -3.975,-4.8909997 z m 1.937,1.224 c 0.609,0.408 1.19,0.78 1.63,1.222 0.596,0.597 0.9,1.4049997 0.816,2.2429997 0.798,-0.402 1.327,-1.071 1.631,-1.6309997 -0.532,-0.49 -1.454,-0.973 -2.447,-1.325 a 23.68,23.68 0 0 0 -1.631,-0.51 z"
     id="path8" />
</svg>

<?xml version="1.0" encoding="UTF-8"?>
<svg id="svg3" width="64" height="64" version="1.1" viewBox="0 0 16.933 16.933" xmlns="http://www.w3.org/2000/svg">
 <defs id="defs3">
  <filter id="filter1057" x="-.027" y="-.027" width="1.054" height="1.054" color-interpolation-filters="sRGB">
   <feGaussianBlur id="feGaussianBlur1" stdDeviation="0.61875"/>
  </filter>
  <linearGradient id="linearGradient1053" x1="-127" x2="-127" y1="60" y2="5" gradientTransform="matrix(.26458 0 0 .26458 34.793 -.13499)" gradientUnits="userSpaceOnUse">
   <stop id="stop1" stop-color="#323741" offset="0"/>
   <stop id="stop2" stop-color="#465064" offset="1"/>
  </linearGradient>
 </defs>
 <rect id="rect2" transform="matrix(.26458 0 0 .26458 -6.016e-5 -6.016e-5)" x="4.5" y="4.5" width="55" height="55" ry="15" fill="#141414" filter="url(#filter1057)" opacity=".3" stroke-linecap="round" stroke-width="2.7444"/>
 <path id="rect3" d="m15.742 11.293c-1.4272 1.2341-3.6131 2.6252-5.8497 2.9512-2.6707 0.38841-5.522-0.4219-8.2727-0.6754 0.6534 1.2911 1.988 2.174 3.5392 2.174h6.6145c2.1987 0 3.9687-1.77 3.9687-3.9687v-0.4811z" fill="#5294e2"/>
 <path id="path10" d="m15.742 10.499c-1.3022 1.3121-3.3611 2.0475-5.7608 2.3967-2.6939 0.39077-5.7903 0.29889-8.6081 0.074929 0.065208 0.20765 0.14973 0.40617 0.24649 0.59737 2.7507 0.2535 5.602 1.0638 8.2727 0.6754 2.2365-0.32603 4.4224-1.717 5.8497-2.9512v-0.79322z" fill="#fff"/>
 <path id="path9" d="m5.1593 1.1906c-2.1987 0-3.9687 1.77-3.9687 3.9687v6.6145c0 0.41768 0.064368 0.81977 0.18293 1.1973 2.8178 0.22396 5.9142 0.31584 8.6081-0.074929 2.3997-0.34925 4.4586-1.0846 5.7608-2.3967v-5.3401c0-2.1987-1.77-3.9687-3.9687-3.9687h-6.6145z" fill="url(#linearGradient1053)"/>
 <path id="path8" d="m6.0715 3.1707c-0.663 2.705-2.57 6.031-3.771 8.154 2.093 0.503 4.416 0.65 6.216 0.814-0.03-0.408-0.334-4.85-0.408-5.707-0.74-1.342-1.342-2.036-2.037-3.261zm2.547 3.464c0.983 2.023 0.983 4.025 0.408 5.503 0.81 5e-3 2.133 0.096 3.567-0.612-1.179-2.69-3.975-4.891-3.975-4.891zm1.937 1.224c0.609 0.408 1.19 0.78 1.63 1.222 0.596 0.597 0.9 1.405 0.816 2.243 0.798-0.402 1.327-1.071 1.631-1.631-0.532-0.49-1.454-0.973-2.447-1.325a23.68 23.68 0 0 0-1.631-0.51z" fill="#fff" fill-rule="evenodd"/>
</svg>
